!!!!SEGMENT: pl-wn--mus-iii-105-719-1--001-004_zelenski-wladyslaw--25-preludyi-op-38-4-allegro-moderato.krn
!!!cenid: 18xx:3737
!!!COM: Żeleński, Władysław
!!!COM-rismID: pe41024455
!!!CDT: 1837/07/06-1921/01/23
!!!CNT: Polish
!!!GTL: 25 preludyi op. 38
!!!OTL: 4. Allegro moderato
!!!OMV: 004
!!!PDT: 1881
!!!AGN:
!!!YEC: Copyright 2022 Narodowy Instytut Fryderyka Chopina (https://polishscores.org)
!!!YEM: License CC-BY-4.0 (https://creativecommons.org/licenses/by/4.0)
!!!SMS-siglum: PL-Wn
!!!SMS-shelfmark: Mus.III.105.719/1
!!!SMS-shelfwork: 001-004 G
!!!SMS-variant:
!!!SMS-altvar:
!!!NIFC-rismSourceID:
!!!NIFC-rismChildID:
!!!NIFC-islandoraID: none
!!!URL-pdf-islandora:
!!!URL-scan: https://polona2.pl/item/25-preludyi-2-3-i-4-glosowych-na-organ-lub-fisharmonike-do-uzytku-organistow-i,ODE1NjEwMzc/2 @EN{Scan on Polona} @PL{Skany w portalu Polona}
!!!IIIF: https://polona2.pl/iiif/item/ODE1NjEwMzc/manifest.json
!!!ONB-nifc:
!!!OMD: Allegro moderato.
!!!AIN: 2 organ
!!!key: e
**kern	**fing	**kern	**dynam	**fing
*part2	*	*part1	*	*
*staff2	*	*staff1	*	*
*I"[Organ / Fisharmonika]	*	*I"[Organ / Fisharmonika]	*	*
*	*	*I'	*	*
*Iorgan	*	*Iorgan	*	*
*ICklav	*	*ICklav	*	*
*clefF4	*	*clefG2	*	*
*k[f#]	*	*k[f#]	*	*
*e:	*	*e:	*	*
*M4/4	*	*M4/4	*	*
*met(c)	*	*met(c)	*	*
*>[A,B,B1,B,B2,C]	*	*>[A,B,B1,B,B2,C]	*	*
=1	=1	=1	=1	=1
*>A	*>A	*>A	*>A	*>A
*xywh-#11:387,317,5073,1172	*	*xywh-#11:387,317,5073,1172	*	*
1r	.	(>2e/	f	1
.	.	2f#/	.	.
=2!|:	=2!|:	=2!|:	=2!|:	=2!|:
*>B	*>B	*>B	*>B	*>B
4r	.	2.g/	.	.
*	*below	*	*	*
(4e\	1	.	.	.
4d\	.	.	.	.
4c\	.	4a/	.	.
=3	=3	=3	=3	=3
2B\)	4	4b/	.	.
.	.	4a/	.	.
4r	.	4g/	.	.
(4D#X\	4	4f#/	.	.
=4	=4	=4	=4	=4
4E\	3	4e/	.	1
2A\	1	8d/L	.	3
.	.	8c/J	.	2
.	.	4B/	.	1
8G\L	2	4d#X/	.	3
8F#\J)	3	.	.	.
=5	=5	=5	=5	=5
(2E\	1	4e/)	.	4
.	.	4r	.	.
2D\	.	2r	.	.
=6	=6	=6	=6	=6
!LO:N:vis=2	!	!	!	!
2.C/	.	4r	.	.
.	.	(<4b\	.	3
.	.	4a/	.	2
4C#X/)	.	4g/	.	1
=7	=7	=7	=7	=7
(4D/	.	2f#/)	.	2
4Cn/	.	.	.	.
4BB/	.	4r	.	.
4AA/	.	(4cc\	.	5
=8	=8	=8	=8	=8
4GG/	5	4b/	.	.
4C/	1	8e/L	.	.
.	.	8f#/J	.	3
4BB/	3	4g/	.	5
4AA/	4	8c#X/L	.	2
.	.	8d#X/J	.	3
=9	=9	=9	=9	=9
!!LO:TX:a:B:t=1.
*>B1	*>B1	*>B1	*>B1	*>B1
4GG/)	5	2e/	.	1
4r	.	.	.	.
2r	.	2f#/)	.	.
!!linebreak:original
=10:|!	=10:|!	=10:|!	=10:|!	=10:|!
!!LO:TX:a:B:t=2.
*>B2	*>B2	*>B2	*>B2	*>B2
*xywh-#11:292,1413,5092,866	*	*xywh-#11:292,1413,5092,866	*	*
!	!	!LO:TX:t=P:problem=zakończenie łuku	!LO:HP:t=cresc. sempre e con energia	!
(4GG#X/	5	2e/	<	.
4D/	.	.	.	.
4C/	.	4r	.	.
4BB/	.	(4dd\	.	5
=11	=11	=11	=11	=11
*>C	*>C	*>C	*>C	*>C
4AA/	.	4cc\	.	4
4D/	.	8f#X/L	.	2
.	.	8g#X/J	.	3
4C/	3	4a/	.	4
4BB/	4	8d/L	.	1
.	.	8e/J	.	2
=12	=12	=12	=12	=12
4AA#X/	5	2f#/)	.	3
4E\	.	.	.	.
4D\	.	4r	.	.
4C#X/	.	(4ee\	.	5
=13	=13	=13	=13	=13
4BB/	.	4dd\	.	4
4E\	.	8g/L	.	1
.	.	8a/J	.	3
4D\	.	4b\	.	4
4Cn/	.	8e/L	.	1
.	.	8f#/J	.	3
=14	=14	=14	=14	=14
4BB/)	.	4g/	.	4
(8G\L	3	4e/	.	2
8A\J	.	.	.	.
4B\	.	4d/	.	1
8E\L	4	4cc\	.	5
8F#\J	.	.	.	.
=15	=15	=15	=15	=15
4G\)	.	4b/	.	3
(8c\L	3	4a/	.	.
8d\J	.	.	.	.
4e\	.	4g/	.	.
8A\L	4	4ffn\	.	.
8B\J	.	.	.	.
=16	=16	=16	=16	=16
4c\	.	4ee\	.	.
8G#X\L	4	4dd\	.	.
8B\J	2	.	.	.
8A\L	1	4cc\	.	.
8E\J	4	.	.	.
[4Gn\	2	4b\	.	1
!!linebreak:original
=17	=17	=17	=17	=17
*xywh-#11:279,2242,5079,815	*	*xywh-#11:279,2242,5079,815	*	*
4G\]	.	4a/	.	2
8F#\L	3	4cc\	.	4
8E\J	1	.	.	.
8D#X\L	3	4b\	.	.
8F#\	2	.	.	.
8C#X\	4	4a/	.	.
8D#\J	3	.	.	.
=18	=18	=18	=18	=18
4E\	1	8g/L	.	1
.	.	8a/	.	4
2Dn\	.	8b/	.	5
.	.	8e/J	.	1
.	.	4a/	.	5
4Cn/	.	8f#/L	.	3
.	.	8e/J	.	1
=19	=19	=19	=19	=19
4BB/	.	8d#X/L	.	2
.	.	8e/	.	3
2A\	.	8f#/	.	4
.	.	8d#/J	.	2
.	.	4B/)	.	1
8G\L	.	4r	.	.
8F#\J)	.	.	.	.
=20	=20	=20	=20	=20
!	!	!	!LO:DY:a=2	!
(2E\	4	1r	f	.
2F#\	3	.	.	.
=21	=21	=21	=21	=21
2.G\	2	4r	.	.
.	.	(4ee\	.	4
.	.	4dd\	.	.
4A\	1	4cc\	.	.
=22	=22	=22	=22	=22
4B\	.	2b\)	.	.
4A\	1	.	.	.
4G\	.	4r	.	.
4F#\	.	(>4d#X/	.	2
=23	=23	=23	=23	=23
4E\	1	4e/	.	1
8D/L	.	2a/	.	5
8C/J	.	.	.	.
4BB/	.	.	.	.
4D#X\	.	8g/L	.	.
.	.	8f#/J	.	.
=24	=24	=24	=24	=24
4E\)	.	2e/	.	.
4r	.	.	.	.
2r	.	2dn/)	.	1
!!linebreak:original
=25	=25	=25	=25	=25
*xywh-#11:273,3045,5219,1077	*	*xywh-#11:273,3045,5219,1077	*	*
4r	.	(2.c/	.	2
(4B\	1	.	.	.
4A\	.	.	.	.
4G\	.	4c#X/	.	3
=26	=26	=26	=26	=26
2F#\)	.	4d/	.	1
.	.	4ccn\	.	5
4r	.	4b\	.	3
([4c\	1	4a/	.	2
=27	=27	=27	=27	=27
4c\]	.	4g/)	.	1
8B\L	3	(4gg\	.	5
8c\J	2	.	.	.
4d\	.	4ff#X\	.	4
8A\L	4	4ffn\	.	3
8B\J	.	.	.	.
=28	=28	=28	=28	=28
4c\)	.	4ee\	.	1
8r	.	4dd#X\	.	3
*	*above	*	*	*
(8F#\	4	.	.	.
8G#X\L	.	2ddn\	.	2
8B\	.	.	.	.
8A\	.	.	.	.
8G#\J	.	.	.	.
=29	=29	=29	=29	=29
4A\)	.	4cc\	.	1
8r	.	4b\	.	3
*	*below	*	*	*
(8D\	3	.	.	.
8C#X\L	4	4a#X/	.	2
8E\	1	.	.	.
8D#X\	3	4an/	.	1
8F#\J	2	.	.	.
=30	=30	=30	=30	=30
*	*	*	*	*below
4E\)	1	8g/L	.	2
.	.	8a/	.	.
(4dn\	1	8b/	.	.
.	.	8g/J	.	.
4c\	2	4e/	.	.
*	*	*	*	*above
4B\	3	[4g/	.	4
=31	=31	=31	=31	=31
4A\	4	4g/]	.	.
4c\	2	8f#/L	.	3
!LO:TX:b:i:t=riten.	!	!	!	!
.	.	8e/J	.	1
8B\L	1	2d#X/	.	2
8A\	.	.	.	.
8G\	.	.	.	.
8F#\J	.	.	.	.
=32	=32	=32	=32	=32
1E)	.	1e)	.	3
==	==	==	==	==
*-	*-	*-	*-	*-
!!!system-decoration: {(s1,s2)}
!!!RDF**kern: > = above
!!!RDF**kern: < = below
!!!ENC: Katarzyna Serwa
!!!END: 2022-03-15
!!!ENC: Filip Voros
!!!END: 2022-03-11
!!!ENC-iiif: Jan Barakat
!!!END-iiif: 2022-08-31
